X:1
T:Underneath Your Clothes
C:Mendez, Shakira
Z:All Rights Reserved
L:1/8
Q:1/4=80
M:4/4
K:Emin
V:1 treble nm="Alto Saxophone" snm="Alto Sax."
V:1
"G" z8 |"C" z8 |"G" z8 |"C" z8 |:S"Em" z2 Bc/(d/"Bm" d4) |"C" d(cc)B"D4" A2"D" G(B | %6
w: ||||You're a song _|writ- ten by the hands of God|
w: ||||Because of you _|I for- got the smart ways to|
"Em" B>)B BA"Bm" (d B3) |"C" decB"D" AA"^D©"c(B |"Em" B2) gg"Bm/D" f2 b(e | %9
w: _ Don't get me wrong 'cause|this might sound to you a bit odd|_ But you own the place|
w: lie Be- cause of you _|I'm run- ning out of rea- sons to|cry When the friends are gone|
"Cmaj7" (e/)d/(c) c>)e"D4" efge |"Em" a4"Em/D" (g2 g>)d |"Am7" dccB (c2 c>)g | %12
w: _ _ _ _ where all my thoughts go|hid- ing. _ And|right un- der your clothes _ is|
w: _ _ _ _ When _ the par- ty's|ov- er _ _|We will still be- long _ _|
"^D74" g2"D7" f2 b2 (a(g) ||"G" g2) bg"G/B" a2 a(e |"C" e2) ed"D4" ed"D"e(g | %15
w: where I find them. _|_ Un- der- neath your clothes,|_ there's an end- less sto- ry,|
w: to each o- ther. _|_ _ _ _ _ _||
"G" g2) bg"G/B" a2 a(g |"C" g2) ed"D4" ed"D" BA/B/ |"Bm" B/B/B BB/(A/"Em" (A)(G) G>)e | %18
w: _ there's the man I chose,|_ there's my ter- ri- to- ry. And|all the things I de- serve _ _ _ for|
w: |||
"A" aa ag/(b/"D4" b)a"D"b(a |1"G" g2) z2 z2 z2 |"C" z8 :|2"G" g2 bg"G/B" a2 a(e || %22
w: be- ing such a good _ girl hon- ey|_||* Un- der- neath your clothes,|
w: ||||
"C" e2) ed"D4" ed"D"e(g |"G" g2) bg"G/B" a2 a(g |"C" g2) ed"D4" ed"D" BA/B/ | %25
w: _ there's an end- less sto- ry.|_ There's the man I chose,|_ there's my ter- ri- to- ry. And|
w: |||
"Bm" B/B/B BB/(A/"Em" (A)(G) G>)eO |"C" aa ag/(b/ b)(a a>)g | aaaa _bb b>d || %28
w: all the things I de- serve _ _ _ for|be- ing such a good _ girl _ for|be- ing such a a a a I|
w: |||
[K:Bb]"Bb" dddd"F/A" d/c/d/c/ dB |"Gm"zc/B/ cB"Bb/F" cB dB/F/ |"Ebmaj7" GB cF/(G/ G/)G/B c/BF/ | %31
w: love you more than all that's on the pla- net|Mov- in', talk- in', walk- in', breath- ing you|know it's true. Oh babe _ it's so fun- ny you|
w: |||
"F4" GBcd"F" f(d c>)c |"Bb" dddd"F/A" d/c/d/c/ dB |"Gm"zc/B/ c/B/c/B/"Bb/F" c(d(d)B) | %34
w: al- most don't be- lieve it _ as|eve- ry voice is hang- ing from the si- lence|lamps are hang- ing from the ceil- ing _ _|
w: |||
"Ebmaj7" GB cB/(G/ G/)G/B c/BF/ |"F4" GBcd"F" f2>Sg2 ||[K:Emin]O"Am" aa ag/(b/ b)(a a>)e | %37
w: like a la- dy tied _ to her man- ners, I'm|tied up to this feel- ing|be- ing such a good _ girl _ for|
w: |||
"D" aaag"^D©" b (a3 |"Em" (f4) e4) |] %39
w: be- ing such a good girl|_ _|
w: ||

